X:313
T:Sean sa Cheo
T:John in the Fog
T:Sean in the Fog
R:reel
H:Also played in Gmix
N:Similar to #303. See also #519
D:Vinnie Kilduff
D:Paul McGrattan: The Frost Is All Over
D:Laurence Nugent
Z:id:hn-reel-313
M:C|
K:Amix
e2dg eA(3Bcd|edeg d2BA|Beed efgd|(3Bcd gd BGBd|
~e2dg eA(3Bcd|edeg d2BA|Beed efgd|(3Bcd gd BGBd||
|:cA~A2 cABd|cA~A2 BGBd|cAAG EFGA|1(3Bcd ge dGBd:|2(3Bcd ge defg||
|:a2c'a bac'a|abc'a ~e3f|1~g2bg agbg|gabg efge:|2 gfgb agef|gfge dGBd||
